svg/300/outlined/gallery_thumbnail-fill.svg

<svg xmlns="http://www.w3.org/2000/svg" width="48" height="48" viewBox="0 -960 960 960"><path d="M127.694-220.001q-23.75 0-40.72-16.972-16.972-16.971-16.972-40.721v-404.612q0-23.75 16.971-40.721 16.971-16.972 40.721-16.972h404.613q23.75 0 40.721 16.972 16.971 16.971 16.971 40.721v404.612q0 23.75-16.971 40.721-16.971 16.972-40.721 16.972H127.694ZM706.343-520q-15.652 0-25.998-10.346-10.346-10.346-10.346-25.998v-147.311q0-15.651 10.346-25.997 10.346-10.347 25.998-10.347h147.311q15.652 0 25.998 10.347 10.346 10.346 10.346 25.997v147.311q0 15.652-10.346 25.998Q869.306-520 853.654-520H706.343ZM173.847-361.923h312.307l-101.153-135-75 100-55-73-81.154 108Zm532.496 141.922q-15.652 0-25.998-10.347-10.346-10.346-10.346-25.997v-147.311q0-15.652 10.346-25.998Q690.691-440 706.343-440h147.311q15.652 0 25.998 10.346 10.346 10.346 10.346 25.998v147.311q0 15.651-10.346 25.997-10.346 10.347-25.998 10.347H706.343Z"/></svg>

<svg xmlns="http://www.w3.org/2000/svg" width="48" height="48" viewBox="0 -960 960 960"><path d="M127.69-220q-23.75 0-40.72-16.97T70-277.69v-404.62q0-23.75 16.97-40.72T127.69-740h404.62q23.75 0 40.72 16.97T590-682.31v404.62q0 23.75-16.97 40.72T532.31-220H127.69Zm578.65-300q-15.65 0-25.99-10.35Q670-540.69 670-556.34v-147.31q0-15.66 10.35-26Q690.69-740 706.34-740h147.31q15.66 0 26 10.35 10.35 10.34 10.35 26v147.31q0 15.65-10.35 25.99-10.34 10.35-26 10.35H706.34ZM173.85-361.92h312.3L385-496.92l-75 100-55-73-81.15 108ZM706.34-220q-15.65 0-25.99-10.35-10.35-10.34-10.35-26v-147.31q0-15.65 10.35-25.99Q690.69-440 706.34-440h147.31q15.66 0 26 10.35Q890-419.31 890-403.66v147.31q0 15.66-10.35 26-10.34 10.35-26 10.35H706.34Z"/></svg>
